res/skins/Tango/buttons/btn_broadcast_off_hover.svg

<?xml version="1.0" encoding="UTF-8" standalone="no"?>
<!-- Created with Inkscape (http://www.inkscape.org/) -->

<svg
   xmlns:dc="http://purl.org/dc/elements/1.1/"
   xmlns:cc="http://creativecommons.org/ns#"
   xmlns:rdf="http://www.w3.org/1999/02/22-rdf-syntax-ns#"
   xmlns:svg="http://www.w3.org/2000/svg"
   xmlns="http://www.w3.org/2000/svg"
   version="1.1"
   width="20"
   height="30"
   id="svg3239">
  <metadata
     id="metadata3255">
    <rdf:RDF>
      <cc:Work
         rdf:about="">
        <dc:format>image/svg+xml</dc:format>
        <dc:type
           rdf:resource="http://purl.org/dc/dcmitype/StillImage" />
        <dc:title></dc:title>
      </cc:Work>
    </rdf:RDF>
  </metadata>
  <defs
     id="defs3253" />
  <path
     d="m 10.23948,8.7500221 1.560348,19.2499229 -3.5996557,1e-6 1.5645952,-19.2499238"
     id="path5834"
     style="fill:#d2d2d2;fill-opacity:1" />
  <path
     d="m 12.000001,8.0000418 c 0,1.1045695 -0.895432,2.0000002 -2.0000011,2.0000002 C 8.8954304,10.000042 8,9.1046113 8,8.0000418 8,6.8954724 8.8954304,6.0000419 9.9999999,6.0000419 c 1.1045691,0 2.0000011,0.8954305 2.0000011,1.9999999 z"
     id="path3245"
     style="fill:#d2d2d2;fill-opacity:1" />
  <path
     d="M 5,1.8125 C 4.5683677,2.1620289 4.1620289,2.5683677 3.8125,3 1.0544119,6.4059553 1.5940447,11.429412 5,14.1875 L 5.75,13.25 C 2.8480457,10.900044 2.4000439,6.6519543 4.75,3.75 L 4.84375,3.65625 C 5.1190323,3.3296397 5.4178891,3.0189381 5.75,2.75 L 5,1.8125 z"
     id="path5888"
     style="font-size:medium;font-style:normal;font-variant:normal;font-weight:normal;font-stretch:normal;text-indent:0;text-align:start;text-decoration:none;line-height:normal;letter-spacing:normal;word-spacing:normal;text-transform:none;direction:ltr;block-progression:tb;writing-mode:lr-tb;text-anchor:start;baseline-shift:baseline;color:#000000;fill:#d2d2d2;fill-opacity:1;stroke:none;stroke-width:1.20000005;marker:none;visibility:visible;display:inline;overflow:visible;enable-background:accumulate;font-family:Sans;-inkscape-font-specification:Sans" />
  <path
     d="M 6.875,4.15625 C 6.6065644,4.3736249 6.3736249,4.6065643 6.15625,4.875 4.4426627,6.9911042 4.7588958,10.130163 6.875,11.84375 l 0.78125,-0.9375 C 6.0441468,9.6007947 5.7882947,7.2683532 7.09375,5.65625 7.2583552,5.4529795 7.4529795,5.2583552 7.65625,5.09375 L 6.875,4.15625 z"
     id="path5908"
     style="font-size:medium;font-style:normal;font-variant:normal;font-weight:normal;font-stretch:normal;text-indent:0;text-align:start;text-decoration:none;line-height:normal;letter-spacing:normal;word-spacing:normal;text-transform:none;direction:ltr;block-progression:tb;writing-mode:lr-tb;text-anchor:start;baseline-shift:baseline;color:#000000;fill:#d2d2d2;fill-opacity:1;stroke:none;stroke-width:1.20000005;marker:none;visibility:visible;display:inline;overflow:visible;enable-background:accumulate;font-family:Sans;-inkscape-font-specification:Sans" />
  <path
     d="M 15,1.8125 C 15.431632,2.1620289 15.837971,2.5683677 16.1875,3 18.945588,6.4059553 18.405955,11.429412 15,14.1875 L 14.25,13.25 c 2.901954,-2.349956 3.349956,-6.5980457 1,-9.5 L 15.15625,3.65625 C 14.880968,3.3296397 14.582111,3.0189381 14.25,2.75 L 15,1.8125 z"
     id="path5888-5"
     style="font-size:medium;font-style:normal;font-variant:normal;font-weight:normal;font-stretch:normal;text-indent:0;text-align:start;text-decoration:none;line-height:normal;letter-spacing:normal;word-spacing:normal;text-transform:none;direction:ltr;block-progression:tb;writing-mode:lr-tb;text-anchor:start;baseline-shift:baseline;color:#000000;fill:#d2d2d2;fill-opacity:1;stroke:none;stroke-width:1.20000005;marker:none;visibility:visible;display:inline;overflow:visible;enable-background:accumulate;font-family:Sans;-inkscape-font-specification:Sans" />
  <path
     d="m 13.125,4.15625 c 0.268436,0.2173749 0.501375,0.4503143 0.71875,0.71875 1.713587,2.1161042 1.397354,5.255163 -0.71875,6.96875 l -0.78125,-0.9375 c 1.612103,-1.3054553 1.867955,-3.6378968 0.5625,-5.25 -0.164605,-0.2032705 -0.359229,-0.3978948 -0.5625,-0.5625 L 13.125,4.15625 z"
     id="path5908-3"
     style="font-size:medium;font-style:normal;font-variant:normal;font-weight:normal;font-stretch:normal;text-indent:0;text-align:start;text-decoration:none;line-height:normal;letter-spacing:normal;word-spacing:normal;text-transform:none;direction:ltr;block-progression:tb;writing-mode:lr-tb;text-anchor:start;baseline-shift:baseline;color:#000000;fill:#d2d2d2;fill-opacity:1;stroke:none;stroke-width:1.20000005;marker:none;visibility:visible;display:inline;overflow:visible;enable-background:accumulate;font-family:Sans;-inkscape-font-specification:Sans" />
</svg>

<!-- Created with Inkscape (http://www.inkscape.org/) -->
<svg id="svg3239" width="20" height="30" version="1.1" xmlns="http://www.w3.org/2000/svg"><path id="path5834" d="m10.239 8.75 1.5603 19.25-3.5997 1e-6 1.5646-19.25" fill="#d2d2d2"/><path id="path3245" d="m12 8c0 1.1046-0.89543 2-2 2-1.1046 0-2-0.89543-2-2 0-1.1046 0.89543-2 2-2 1.1046 0 2 0.89543 2 2z" fill="#d2d2d2"/><path id="path5888" d="m5 1.8125c-0.43163 0.34953-0.83797 0.75587-1.1875 1.1875-2.7581 3.406-2.2185 8.4294 1.1875 11.188l0.75-0.9375c-2.902-2.35-3.35-6.598-1-9.5l0.09375-0.09375c0.27528-0.32661 0.57414-0.63731 0.90625-0.90625l-0.75-0.9375z" color="#000000" fill="#d2d2d2" style="block-progression:tb;text-indent:0;text-transform:none"/><path id="path5908" d="m6.875 4.1562c-0.26844 0.21737-0.50138 0.45031-0.71875 0.71875-1.7136 2.1161-1.3974 5.2552 0.71875 6.9688l0.78125-0.9375c-1.6121-1.3055-1.868-3.6379-0.5625-5.25 0.16461-0.20327 0.35923-0.39789 0.5625-0.5625l-0.78125-0.9375z" color="#000000" fill="#d2d2d2" style="block-progression:tb;text-indent:0;text-transform:none"/><path id="path5888-5" d="m15 1.8125c0.43163 0.34953 0.83797 0.75587 1.1875 1.1875 2.7581 3.406 2.2185 8.4294-1.1875 11.188l-0.75-0.9375c2.902-2.35 3.35-6.598 1-9.5l-0.09375-0.09375c-0.27528-0.32661-0.57414-0.63731-0.90625-0.90625l0.75-0.9375z" color="#000000" fill="#d2d2d2" style="block-progression:tb;text-indent:0;text-transform:none"/><path id="path5908-3" d="m13.125 4.1562c0.26844 0.21737 0.50138 0.45031 0.71875 0.71875 1.7136 2.1161 1.3974 5.2552-0.71875 6.9688l-0.78125-0.9375c1.6121-1.3055 1.868-3.6379 0.5625-5.25-0.1646-0.20327-0.35923-0.39789-0.5625-0.5625l0.78125-0.9375z" color="#000000" fill="#d2d2d2" style="block-progression:tb;text-indent:0;text-transform:none"/></svg>
